lib/functional/maps&travel/taxi.svg

<svg xmlns="http://www.w3.org/2000/svg" fill="none" stroke="currentColor" aria-hidden="true" viewBox="0 0 32 32"><g id="Icon-Taxi"><g clip-path="url(#clip0_10_1354)"><g id="size=md (32px)"><g id="Taxi"><path id="Vector" stroke-linecap="round" stroke-linejoin="round" stroke-width="2" d="M2 15H30"/><path id="Vector_2" stroke-linecap="round" stroke-linejoin="round" stroke-width="2" d="M28 23V26C28 26.2652 27.8946 26.5196 27.7071 26.7071C27.5196 26.8946 27.2652 27 27 27H24C23.7348 27 23.4804 26.8946 23.2929 26.7071C23.1054 26.5196 23 26.2652 23 26V23"/><path id="Vector_3" stroke-linecap="round" stroke-linejoin="round" stroke-width="2" d="M9 23V26C9 26.2652 8.89464 26.5196 8.70711 26.7071C8.51957 26.8946 8.26522 27 8 27H5C4.73478 27 4.48043 26.8946 4.29289 26.7071C4.10536 26.5196 4 26.2652 4 26V23"/><path id="Vector_4" stroke-linecap="round" stroke-linejoin="round" stroke-width="2" d="M8 19H10"/><path id="Vector_5" stroke-linecap="round" stroke-linejoin="round" stroke-width="2" d="M22 19H24"/><path id="Vector_6" stroke-linecap="round" stroke-linejoin="round" stroke-width="2" d="M28 15L24.2875 8.50001C24.201 8.34765 24.0755 8.22104 23.924 8.13317C23.7724 8.04531 23.6002 7.99935 23.425 8.00001H8.575C8.39981 7.99935 8.22759 8.04531 8.07602 8.13317C7.92445 8.22104 7.79899 8.34765 7.7125 8.50001L4 15V23H28V15Z"/><path id="Vector_7" stroke-linecap="round" stroke-linejoin="round" stroke-width="2" d="M20 8.00002L18.25 3.62502C18.1769 3.43969 18.0494 3.28081 17.8843 3.16927C17.7192 3.05772 17.5242 2.99872 17.325 3.00002H14.675C14.4758 2.99872 14.2808 3.05772 14.1157 3.16927C13.9506 3.28081 13.8231 3.43969 13.75 3.62502L12 8.00002"/></g></g></g></g><defs><clipPath id="clip0_10_1354"><rect width="32" height="32" fill="white" rx="5"/></clipPath></defs></svg>

<svg xmlns="http://www.w3.org/2000/svg" fill="none" stroke="currentColor" aria-hidden="true" viewBox="0 0 32 32"><g stroke="#101828" stroke-linecap="round" stroke-linejoin="round" stroke-width="2" clip-path="url(#a)"><path d="M2 15h28m-2 8v3a1 1 0 0 1-1 1h-3a1 1 0 0 1-1-1v-3M9 23v3a1 1 0 0 1-1 1H5a1 1 0 0 1-1-1v-3m4-4h2m12 0h2"/><path d="m28 15-3.712-6.5a.988.988 0 0 0-.863-.5H8.575a.988.988 0 0 0-.862.5L4 15v8h24v-8Z"/><path d="m20 8-1.75-4.375A.987.987 0 0 0 17.325 3h-2.65a.988.988 0 0 0-.925.625L12 8"/></g><defs><clipPath id="a"><rect width="32" height="32" fill="#fff" rx="5"/></clipPath></defs></svg>
